X:4
T:Liebes Schmertzen
C:From Pete Sokolow, Klez Kamp 2001
R:Waltz
Z:Terry Traub
M:3/4
K:Dm
L: 1/4
| "Dm" D3 | A3 | "Ddim"^G3| d3|"Dm" D3 | A3 | "Ddim"^G3| d3| "Dm" d e f| e d > B|"Gm"G3-| G3|
"Gm6"E F G| "G#dim"F E D| "A7" A B A| G F E|"Dm" D3 | A3 | "Ddim"^G3| d3|"Dm" D3 | \
  A3 | "Ddim"^G3| d3|
"Dm" d e f| "Gm"g f e| "C7"d c B| "F" A E F| "Gm6"G2 B| "A7"A/G/ F E| "Dm"D3-|D3|]
